X:4765
T:Oh povera me. CJF.037
T:No.3. CJF.037
O:england
M:6/8
L:1/8
Q:80
C:Amatuer
S: C.J.Fox MS, 1829/33, Beverley,E.Yorks.
R:Air
A:East Yorkshire
B:Kidson Coll.Mitchell Lib.M1805
K:D
"p"fg|ad'-d'd'2d'|(d'2f) gab|(b2a)(a2b)|\(gf^e) ffg|
a2d'd'2d'|d'2f gab|(b2a) age|d3-d2h||
"ff"ef|(gfe) (gfe)|(edc) def|(gfe) (gfe)|efc dfg|
(a2d') d'2d'|(d'2f) gab|(b2a) age|"D.C."d3-d2||
d'"f"|c'bc' d'f'd'|{f'}c'bc'd'3|(d'c'b) a(d'a)|({a}gfe) fad'|
c'bc' d'f'd'|{f'}c'bc'd'3|d'(c'b) a(d'a) |({a}"D.C. $"gfe)d2||


